icon/ir/wifi-error.svg

<svg viewBox="0 0 24 24" stroke-width="1.5" fill="none" xmlns="http://www.w3.org/2000/svg" height="1em" width="1em">
  <path d="M12 18.51L12.01 18.4989" stroke="currentColor" stroke-linecap="round" stroke-linejoin="round"/>
  <path d="M2 7C8 2.5 16 2.5 22 7" stroke="currentColor" stroke-linecap="round" stroke-linejoin="round"/>
  <path d="M5 11C9 8 15 8 19 11" stroke="currentColor" stroke-linecap="round" stroke-linejoin="round"/>
  <path d="M8.5 14.5C10.7504 13.1 13.2498 13.0996 15.5001 14.5" stroke="currentColor" stroke-linecap="round" stroke-linejoin="round"/>
  <path d="M17.1213 21.364L19.2426 19.2427M21.364 17.1214L19.2426 19.2427M19.2426 19.2427L17.1213 17.1214M19.2426 19.2427L21.364 21.364" stroke="currentColor" stroke-linecap="round" stroke-linejoin="round"/>
</svg>

<svg width="24" height="24" stroke-width="1.5" fill="none" xmlns="http://www.w3.org/2000/svg"><path d="m12 18.51.01-.011M2 7c6-4.5 14-4.5 20 0M5 11c4-3 10-3 14 0M8.5 14.5c2.25-1.4 4.75-1.4 7 0M17.121 21.364l2.122-2.121m2.121-2.122-2.121 2.122m0 0L17.12 17.12m2.122 2.122 2.121 2.121" stroke="currentColor" stroke-linecap="round" stroke-linejoin="round"/></svg>
